public/assets/images/service/08.svg

<svg width="60" height="60" viewBox="0 0 60 60" fill="none" xmlns="http://www.w3.org/2000/svg">
<path d="M48.717 25.4985C47.8934 24.6715 46.914 24.0159 45.8356 23.5696C44.7571 23.1234 43.6008 22.8952 42.4337 22.8985H17.5503C16.3831 22.8963 15.227 23.1246 14.1482 23.5702C13.0695 24.0159 12.0893 24.6701 11.264 25.4954C10.4386 26.3208 9.78439 27.3009 9.33874 28.3797C8.89309 29.4585 8.66481 30.6146 8.66701 31.7818V47.7985C8.66701 48.9643 8.8969 50.1186 9.34353 51.1955C9.79017 52.2723 10.4448 53.2505 11.2699 54.0741C12.095 54.8976 13.0744 55.5504 14.1521 55.995C15.2298 56.4396 16.3846 56.6673 17.5503 56.6651H42.4503C44.8021 56.6608 47.0566 55.7257 48.7211 54.0643C50.3856 52.4029 51.3249 50.1502 51.3337 47.7985V31.7818C51.3375 30.6131 51.108 29.4553 50.6587 28.3764C50.2094 27.2974 49.5493 26.319 48.717 25.4985ZM15.767 37.1651H14.0003V33.5651H15.7837C20.0229 33.5695 24.0875 35.2544 27.0866 38.2504C30.0858 41.2464 31.7749 45.3093 31.7837 49.5485V51.3485H28.217V49.5485C28.2082 46.2552 26.8949 43.0996 24.5646 40.7724C22.2344 38.4453 19.077 37.1362 15.7837 37.1318L15.767 37.1651ZM15.767 44.2818H14.0003V40.6818H15.7837C18.1354 40.6862 20.3899 41.6212 22.0544 43.2826C23.7189 44.944 24.6582 47.1967 24.667 49.5485V51.3485H21.117V49.5485C21.1126 48.1369 20.5487 46.7846 19.549 45.788C18.5493 44.7914 17.1953 44.2318 15.7837 44.2318L15.767 44.2818ZM17.5503 49.5985C17.5744 49.846 17.5463 50.0959 17.4681 50.3319C17.3898 50.568 17.263 50.7851 17.0958 50.9693C16.9287 51.1534 16.7248 51.3006 16.4974 51.4013C16.27 51.502 16.0241 51.554 15.7753 51.554C15.5266 51.554 15.2807 51.502 15.0533 51.4013C14.8258 51.3006 14.622 51.1534 14.4549 50.9693C14.2877 50.7851 14.1609 50.568 14.0826 50.3319C14.0044 50.0959 13.9763 49.846 14.0003 49.5985C14.0431 49.1574 14.2486 48.748 14.5768 48.4502C14.9049 48.1523 15.3322 47.9873 15.7753 47.9873C16.2185 47.9873 16.6458 48.1523 16.9739 48.4502C17.3021 48.748 17.5075 49.1574 17.5503 49.5985Z" fill="#0F62FE"/>
<path d="M21.1166 15.7821C21.1166 13.4238 22.0534 11.1622 23.7209 9.49471C25.3884 7.8272 27.65 6.8904 30.0082 6.8904C32.3664 6.8904 34.6281 7.8272 36.2956 9.49471C37.9631 11.1622 38.8999 13.4238 38.8999 15.7821V19.3321H42.4499V15.7821C42.4532 13.3186 41.7246 10.9096 40.3565 8.86084C38.9885 6.81209 37.0427 5.21593 34.766 4.2749C32.4893 3.33386 29.9843 3.09037 27.569 3.57532C25.1537 4.06028 22.9369 5.25181 21.1999 6.99873C20.0381 8.1466 19.1169 9.51462 18.4902 11.0228C17.8635 12.5309 17.5438 14.1489 17.5499 15.7821V19.3321H21.0999L21.1166 15.7821Z" fill="#0F62FE"/>
</svg>

<svg xmlns="http://www.w3.org/2000/svg" width="60" height="60" fill="none" viewBox="0 0 60 60"><path fill="#0f62fe" d="M48.717 25.499a8.83 8.83 0 0 0-6.283-2.6H17.55a8.87 8.87 0 0 0-8.883 8.883v16.016a8.867 8.867 0 0 0 8.883 8.867h24.9a8.9 8.9 0 0 0 8.884-8.867V31.783a8.78 8.78 0 0 0-2.617-6.283m-32.95 11.666H14v-3.6h1.784a16.017 16.017 0 0 1 16 15.984v1.8h-3.567v-1.8a12.45 12.45 0 0 0-12.433-12.417zm0 7.117H14v-3.6h1.784a8.9 8.9 0 0 1 8.883 8.866v1.8h-3.55v-1.8a5.333 5.333 0 0 0-5.333-5.316zM17.55 49.6a1.783 1.783 0 1 1-3.549.344 1.783 1.783 0 0 1 3.55-.344m3.566-33.818a8.892 8.892 0 1 1 17.783 0v3.55h3.55v-3.55A12.433 12.433 0 0 0 21.2 7a12.28 12.28 0 0 0-3.65 8.783v3.55h3.55z"/></svg>
